!!!COM: Palestrina, Giovanni Perluigi da
!!!OPR: Missa Te Deum laudamus
!!!OMD: Credo
!!!OTL: First Section
**kern	**kern	**kern	**kern	**kern	**kern
*Ibass	*Itenor	*Itenor	*Icalto	*Icalto	*Icant
!Bassus	!Tenor 2	!Tenor 1	!Altus 2	!Altus 1	!Cantus
*clefF4	*clefGv2	*clefGv2	*clefG2	*clefG2	*clefG2
*k[]	*k[]	*k[]	*k[]	*k[]	*k[]
*A:aeo	*A:aeo	*A:aeo	*A:aeo	*A:aeo	*A:aeo
*M4/2	*M4/2	*M4/2	*M4/2	*M4/2	*M4/2
=1	=1	=1	=1	=1	=1
1r	0r	0r	1e	0r	1r
[1A	.	.	2c	.	[1e
.	.	.	2A	.	.
=2	=2	=2	=2	=2	=2
1A]	0r	0r	2c	1r	1e]
.	.	.	2c	.	.
1E	.	.	1B	1e	1g#
=3	=3	=3	=3	=3	=3
1AA	0r	0r	4A	2c	0a
.	.	.	4B	.	.
.	.	.	4c	2A	.
.	.	.	4d	.	.
4AA	.	.	1e	2c	.
4BB	.	.	.	.	.
4C	.	.	.	2c	.
4D	.	.	.	.	.
=4	=4	=4	=4	=4	=4
2E	0r	1e	0r	1B	1g#
2E	.	.	.	.	.
2.F	.	2c	.	1A	2a
.	.	2A	.	.	[2cc
4G	.	.	.	.	.
=5	=5	=5	=5	=5	=5
1A	0r	2c	0e	0r	4cc]
.	.	.	.	.	4b
.	.	2c	.	.	1a
1E	.	1B	.	.	.
.	.	.	.	.	2g#
=6	=6	=6	=6	=6	=6
0AA	0E	4A	2c	1e	0a
.	.	4B	.	.	.
.	.	4c	2A	.	.
.	.	4B	.	.	.
.	.	4A	1c	2c	.
.	.	4G#	.	.	.
.	.	2A	.	2A	.
=7	=7	=7	=7	=7	=7
2r	1G#	1E	1B	1e	0r
2E	.	.	.	.	.
2F	1A	1r	2A	2c	.
2D	.	.	[2d	[2f	.
=8	=8	=8	=8	=8	=8
1F	1A	1r	4d]	4f]	0r
.	.	.	4c	4e	.
.	.	.	2A	4c	.
.	.	.	.	4d	.
1E	1G#	2r	1B	1e	.
.	.	2e	.	.	.
=9	=9	=9	=9	=9	=9
1.AA	2A	2c	1A	1.e	0r
.	1c	2A	.	.	.
.	.	2c	1r	.	.
2BB	[2B	2d	.	2d	.
=10	=10	=10	=10	=10	=10
2.C	4B]	1e	0r	1c	0r
.	4A	.	.	.	.
.	1A	.	.	.	.
4D	.	.	.	.	.
1E	.	1e	.	1B	.
.	2G#	.	.	.	.
=11	=11	=11	=11	=11	=11
0AA	0A	2c#	2r	1A	1r
.	.	1c#	1e	.	.
.	.	.	.	1r	[1a
.	.	2c#	2e	.	.
=12	=12	=12	=12	=12	=12
0r	0r	2.d	2.f#	0r	2a]
.	.	.	.	.	2a
.	.	4d	4f#	.	.
.	.	1G	2d	.	2.b
.	.	.	[2g	.	.
.	.	.	.	.	4b
=13	=13	=13	=13	=13	=13
0r	0r	2.c	4g]	0r	2g
.	.	.	4f	.	.
.	.	.	4e	.	1cc
.	.	4B	4d	.	.
.	.	2A	4e	.	.
.	.	.	4f#	.	.
.	.	2G	[2g	.	2b
=14	=14	=14	=14	=14	=14
1r	1r	1d	2g]	1r	1a
.	.	.	2f#	.	.
2r	2r	1G	2.g	1B	1g
[2E	[2G	.	.	.	.
.	.	.	4f	.	.
=15	=15	=15	=15	=15	=15
2E]	2G]	1r	2.e	2B	0r
2E	2G	.	.	1c	.
.	.	.	4d	.	.
1F	1A	2r	1c	.	.
.	.	2A	.	2A	.
=16	=16	=16	=16	=16	=16
2D	2F	2A	0r	2.d	0r
1G	4G	2B	.	.	.
.	4A	.	.	4c	.
.	4B	2G	.	2B	.
.	4c	.	.	.	.
2F	[2d	[2A	.	2A	.
=17	=17	=17	=17	=17	=17
1E	2d]	4A]	0r	2B	1r
.	.	4G	.	.	.
.	2c#	1G	.	4A	.
.	.	.	.	4G	.
[1D	1d	.	.	[1A	2r
.	.	4F#	.	.	[2a
.	.	4E	.	.	.
=18	=18	=18	=18	=18	=18
1D]	1d	2F#	2r	1A]	2a]
.	.	2F#	1d	.	2a
1r	1B	1G	.	1G	1b
.	.	.	2d	.	.
=19	=19	=19	=19	=19	=19
0r	1c	1C	1e	0r	2g
.	.	.	.	.	1cc
.	2A	1r	2c	.	.
.	[2d	.	[2f	.	2b
=20	=20	=20	=20	=20	=20
0r	2d]	1r	2f]	1r	1a
.	1c	.	2e	.	.
.	.	1G	1d	2r	1g
.	2B	.	.	2d	.
=21	=21	=21	=21	=21	=21
0r	1c	2C	2r	1e	0g
.	.	1c	2c	.	.
.	2G	.	1d	4d	.
.	.	.	.	8e	.
.	.	.	.	8f	.
.	2G	2B	.	[2g	.
=22	=22	=22	=22	=22	=22
1r	2.c	1A	2e	2g]	1a
.	.	.	4d	2f#	.
.	8B	.	4c	.	.
.	8c	.	.	.	.
2r	2d	1G	2B	2g	2b
[2C	2e	.	2G	2g	[2cc
=23	=23	=23	=23	=23	=23
4C]	1c	2r	2r	2e	4cc]
4C	.	.	.	.	4cc
2C	.	2.G	2.g	2e	2cc
2.E	2r	.	.	1e	[1b
.	.	4G	4g	.	.
.	[2G	2G	2g	.	.
4F	.	.	.	.	.
=24	=24	=24	=24	=24	=24
1G	4G]	2.B	1g	1d	1b]
.	4G	.	.	.	.
.	2G	.	.	.	.
.	.	4c	.	.	.
1D	1A	1d	1f#	2r	1a
.	.	.	.	[2d	.
=25	=25	=25	=25	=25	=25
1.GG	1G	1B	2g	4d]	2.dd
.	.	.	.	4c	.
.	.	.	2g	4B	.
.	.	.	.	4A	4cc
.	1D	[1d	2g	2G	2b
2D	.	.	2f	2A	[2a
=26	=26	=26	=26	=26	=26
2F	2D	2d]	0d	2A	2a]
2G	1d	2B	.	2B	1g
1D	.	2A	.	[1d	.
.	2A	2A	.	.	2f#
=27	=27	=27	=27	=27	=27
2r	1B	1G	2r	1d]	0g
1G	.	.	1d	.	.
.	2r	1r	.	2.B	.
2G	[2G	.	2d	.	.
.	.	.	.	4B	.
=28	=28	=28	=28	=28	=28
2E	2G]	0r	2e	2B	0r
2E	2G	.	2e	2c#	.
1D	2A	.	1f	1d	.
.	2B	.	.	.	.
=29	=29	=29	=29	=29	=29
0C	1c	1r	1e	2G	1r
.	.	.	.	1g	.
.	1c	2r	1e	.	2r
.	.	[2E	.	2g	[2g
=30	=30	=30	=30	=30	=30
0r	0r	2E]	2B	2e	2g]
.	.	2E	1c	2e	2g
.	.	2F	.	1d	2a
.	.	2G	2B	.	2b
=31	=31	=31	=31	=31	=31
0r	0r	2A	2.A	2.c	2cc
.	.	2.c	.	.	2.ee
.	.	.	4B	4d	.
.	.	.	1c	2e	.
.	.	4B	.	.	4dd
.	.	4A	.	[2f	4cc
.	.	4G	.	.	4b
=32	=32	=32	=32	=32	=32
0r	0r	2.A	1.c	4f]	2.cc
.	.	.	.	4e	.
.	.	.	.	1e	.
.	.	4G	.	.	4b
.	.	2F	.	.	2a
.	.	2F	2A	2d	2a
=33	=33	=33	=33	=33	=33
2r	2r	1E	1B	1e	2g
2E	2e	.	.	.	2g
2G	2d	1r	2r	1r	2b
2G	2e	.	2g	.	2b
=34	=34	=34	=34	=34	=34
1A	1c	1r	2e	1r	1cc
.	.	.	2f#	.	.
[1G	1d	2r	[1g	2r	[1b
.	.	2G	.	2B	.
=35	=35	=35	=35	=35	=35
1G]	1r	2B	1g]	2d	1b]
.	.	2B	.	2d	.
2r	2r	1c	2g	1e	1r
2C	2c	.	2e	.	.
=36	=36	=36	=36	=36	=36
2E	2B	1G	2g	2e	0r
2E	2c	.	2g	2e	.
2F	2A	1r	2a	2c	.
2F	2A	.	2a	2d	.
=37	=37	=37	=37	=37	=37
0E	1B	2r	2.g	2e	2r
.	.	2E	.	2e	2g
.	.	.	4f	.	.
.	1r	2G	1e	2B	2b
.	.	2G	.	[2e	2b
=38	=38	=38	=38	=38	=38
1r	1r	2A	2r	2e]	2cc
.	.	2A	2c	2f#	2cc
2r	2r	1G	2d	[1g	1b
[2E	2B	.	[2e	.	.
=39	=39	=39	=39	=39	=39
2E]	2c	0r	2e]	2g]	0r
2F	1d	.	4d	4f	.
.	.	.	4c	4e	.
1G	.	.	4B	4d	.
.	.	.	4A	4c	.
.	[2e	.	[2g	2B	.
=40	=40	=40	=40	=40	=40
1A	2e]	1r	2g]	1c	0r
.	4d	.	2f#	.	.
.	4c	.	.	.	.
1G	1d	2r	1g	2B	.
.	.	2B	.	2d	.
=41	=41	=41	=41	=41	=41
0r	0r	2B	0r	2d	2r
.	.	2c	.	2e	2a
.	.	1d	.	1f	2a
.	.	.	.	.	2b
=42	=42	=42	=42	=42	=42
1A	2r	2.c	1r	0e	4cc
.	.	.	.	.	4b
.	2A	.	.	.	4cc
.	.	4B	.	.	4dd
2c	2A	2A	2r	.	2cc
2G	2B	2E	2e	.	[2b
=43	=43	=43	=43	=43	=43
1A	1c	2r	2e	0r	4b]
.	.	.	.	.	4a
.	.	2A	2f	.	1a
1E	1B	2B	1e	.	.
.	.	2B	.	.	2g#
=44	=44	=44	=44	=44	=44
1AA	2r	1c#	1e	1r	1a
.	1A	.	.	.	.
[1D	.	1d	1r	[1f#	2r
.	2A	.	.	.	[2a
=45	=45	=45	=45	=45	=45
2D]	2A	0r	1.d	2f#]	2a]
2D	2A	.	.	2f#	2a
2D	1d	.	.	2f#	2a
2D	.	.	2d	2f#	2a
=46	=46	=46	=46	=46	=46
1G	1B	0r	2d	2g	1b
.	.	.	2d	2.g	.
[1C	2.c	.	1e	.	1g
.	.	.	.	4f	.
.	.	.	.	4e	.
.	4B	.	.	4d	.
=47	=47	=47	=47	=47	=47
1C]	2A	1r	1e	1c	2.cc
.	2G	.	.	.	.
.	.	.	.	.	4b
1r	2F	2.c	2f	1r	2a
.	2E	.	2g	.	2g
.	.	4B	.	.	.
=48	=48	=48	=48	=48	=48
0r	2F	2A	2.c	0r	2f
.	2C	2G	.	.	2e
.	.	.	4c	.	.
.	1r	2F	2c	.	2a
.	.	2E	2c	.	[2g
=49	=49	=49	=49	=49	=49
1r	1r	1A	1c	2r	2g]
.	.	.	.	2c	2f#
2r	2r	1G	2d	2B	[1g
2C	[2G	.	2e	2c	.
=50	=50	=50	=50	=50	=50
2BB	2G]	0r	2d	2d	0g]
2.C	2G	.	2.c	1e	.
.	1c	.	.	.	.
4C	.	.	4c	.	.
2C	.	.	2e	[2g	.
=51	=51	=51	=51	=51	=51
2G	2B	0r	2d	2g]	0r
2A	2c	.	2c	2f#	.
1G	2d	.	1B	1g	.
.	2d	.	.	.	.
=52	=52	=52	=52	=52	=52
2r	1B	1G	2r	2r	0r
2G	.	.	2d	2g	.
2D	1r	2A	2d	2f#	.
2G	.	2B	2d	2g	.
=53	=53	=53	=53	=53	=53
1C	0r	1c	1g	1e	0r
2G	.	2B	2g	2d	.
2G	.	2B	2g	2d	.
=54	=54	=54	=54	=54	=54
1C	2r	2c	2e	1g	2r
.	2c	2c	2e	.	2g
1r	2G	2B	2d	1r	2g
.	2c	2c	2e	.	2g
=55	=55	=55	=55	=55	=55
0r	1F	1c	1f	0r	1a
.	2C	2c	2e	.	2g
.	2C	2c	2e	.	2g
=56	=56	=56	=56	=56	=56
1r	1G	1B	1d	0r	1g
2r	4C	1c	[1g	.	2e
.	4D	.	.	.	.
2c	4E	.	.	.	2ee
.	4F	.	.	.	.
=57	=57	=57	=57	=57	=57
4B	1G	1r	1g]	2r	4dd
4A	.	.	.	.	4cc
4G	.	.	.	2d	4b
4F	.	.	.	.	4a
2E	2r	2r	1r	1e	2g
2C	2c	2e	.	.	2g
=58	=58	=58	=58	=58	=58
1GG	4B	4d	2r	2g	1b
.	4A	4c	.	.	.
.	4G	4B	2g	2d	.
.	4F	4A	.	.	.
1C	2E	2G	4g	1e	1cc
.	.	.	4f	.	.
.	2C	2G	4e	.	.
.	.	.	4d	.	.
=59	=59	=59	=59	=59	=59
2AA	2.c	1A	2c	1e	2cc
2A	.	.	2A	.	2cc
.	4d	.	.	.	.
4G	1e	1E	1B	1r	4b
4F	.	.	.	.	4a
4E	.	.	.	.	4g
4D	.	.	.	.	4f
=60	=60	=60	=60	=60	=60
2C	1e	1E	1c	2r	2e
2AA	.	.	.	2a	4c
.	.	.	.	.	4d
1E	2e	2r	1B	4g	4e
.	.	.	.	4f	4f
.	[2E	2e	.	4e	2g
.	.	.	.	4d	.
=61	=61	=61	=61	=61	=61
1AA	2E]	4e	2r	2c	2a
.	.	4d	.	.	.
.	2.A	4c	1e	2A	1cc
.	.	4B	.	.	.
2AA	.	2A	.	1e	.
.	4A	.	.	.	.
2E	2G	2B	[2g	.	[2b
=62	=62	=62	=62	=62	=62
2.C	0E	1c	4g]	0e	4b]
.	.	.	4f	.	4a
.	.	.	2.e	.	1a
4D	.	.	.	.	.
1E	.	1B	.	.	.
.	.	.	4d	.	.
.	.	.	2B	.	2g#
=63	=63	=63	=63	=63	=63
0AA	0E	0A	0c#	0e	0a
=64	=64	=64	=64	=64	=64
0A	0r	0c#	0e	0r	0a
=65	=65	=65	=65	=65	=65
1D	0r	1d	1f	0r	1a
1E	.	1B	1e	.	1g#
=66	=66	=66	=66	=66	=66
1A	0r	1c	1e	0r	1a
1G	.	1d	1g	.	1b
=67	=67	=67	=67	=67	=67
0C	0c	0e	1g	1r	1cc
.	.	.	1e	1g	1cc
=68	=68	=68	=68	=68	=68
0r	1F	0r	1f	1a	1cc
.	1G	.	1d	1g	1b
=69	=69	=69	=69	=69	=69
0r	1c	0r	1e	1g	1cc
.	1A	.	1f#	1c	1cc
=70	=70	=70	=70	=70	=70
1r	0G	1r	1g	1d	1b
[1G	.	[1B	[1d	[1g	[1dd
=71	=71	=71	=71	=71	=71
2G]	2r	2B]	2d]	2g]	2dd]
2G	1G	2B	2d	2g	2dd
[1C	.	[1c	[1e	1g	[1cc
.	2G	.	.	.	.
=72	=72	=72	=72	=72	=72
1C]	1E	1c]	1e]	1G	1cc]
1GG	1G	2d	1d	2.B	1b
.	.	[2G	.	.	.
.	.	.	.	4c	.
=73	=73	=73	=73	=73	=73
1D	1A	2G]	0r	1.d	1a
.	.	4F#	.	.	.
.	.	4E	.	.	.
1D	1A	2F#	.	.	1a
.	.	2F#	.	2d	.
=74	=74	=74	=74	=74	=74
0GG	0B	1G	1r	0d	1g
.	.	1G	1d	.	[1g
=75	=75	=75	=75	=75	=75
0r	0r	1c	1e	1r	1g]
.	.	1A	1f#	1c	1a
=76	=76	=76	=76	=76	=76
1GG	1r	1G	0g	1d	1b
1C	1G	1E	.	1e	[1cc
=77	=77	=77	=77	=77	=77
1AA	1A	1r	1c	1f	1cc]
1GG	1B	1G	1d	2.g	1b
.	.	.	.	4f	.
=78	=78	=78	=78	=78	=78
0AA	0c	2.C	2r	4e	2a
.	.	.	.	4d	.
.	.	.	2e	4c	2.cc
.	.	4D	.	4B	.
.	.	1E	1e	1A	.
.	.	.	.	.	4b
.	.	.	.	.	[2a
=79	=79	=79	=79	=79	=79
0E	0B	1E	0e	1B	2a]
.	.	.	.	.	4g#
.	.	.	.	.	4f#
.	.	2r	.	2r	1g#
.	.	[2E	.	2e	.
=80	=80	=80	=80	=80	=80
1AA	[0A	2E]	1c#	2e	[0a
.	.	2.A	.	2e	.
1D	.	.	1d	2f	.
.	.	4G	.	.	.
.	.	2F	.	[2d	.
=81	=81	=81	=81	=81	=81
0AA	1A_	0E	0e	2d]	0a]
.	.	.	.	4c#	.
.	.	.	.	4B	.
.	1A_	.	.	1c#	.
=82	=82	=82	=82	=82	=82
0D	0A]	0D	0f#	0d	0a
*-	*-	*-	*-	*-	*-
!!!CDT: 1525/^1526/-1594/2/2
!!!OCY: Italia
!!!AGN: Mass (Paraphrase)
!!!AST: renaissance, vocal
!!!ASW: Hymn
!!!PWK: Masses, Book 9
!!!RNB: Cadence finals: G,E,D
!!!YOR: Le Opere Complete, v. 25, p. 172
!!!YOO: Rome, Italy: Fratelli Scalera
!!!END: 1992//
!!!EED: John Miller
!!!YEC: Copyright 2000, John Miller
!!!YEN: United States of America
!!!YEM: Rights to all derivative electronic formats reserved.
!!!YEM: Refer to licensing agreement for further details.
!!!YEM: This file must be accompanied by the licensing agreement.
!!!YEM: A copy of the licensing agreement may be found at http://www.music-cog.ohio-state.edu/HumdrumDatabases/Palestrina/license.txt
!!!EMD: converted to Humdrum by Bret Aarden
